svg/u1fa83.svg

<svg viewBox="0 0 128 128" xmlns="http://www.w3.org/2000/svg">
  <g>
    <radialGradient id="SVGID_1_" cx="20.3912" cy="112.5229" gradientTransform="matrix(0.9546 -0.298 0.2136 0.684 -23.1041 41.6348)" gradientUnits="userSpaceOnUse" r="86.7198">
      <stop offset="0.3898" stop-color="#B0BEC5"/>
      <stop offset="1" stop-color="#B0BEC5" stop-opacity="0"/>
    </radialGradient>
    <path d="M30.48,94.11c-13.61,7.9-19.63,6.64-7.21-17.09C29.6,64.91,41.82,50.5,55.04,38.38 l-8.46-5.83c-9.78,9-19.94,20.73-30.27,36.06c-30.72,45.55,5.39,49.45,20.86,44.3c35.23-11.72,61.38-50.06,61.38-50.06L79.04,45.52 C79.04,45.52,47.22,84.39,30.48,94.11z" fill="url(#SVGID_1_)"/>
    <linearGradient id="SVGID_2_" gradientUnits="userSpaceOnUse" x1="64.6057" x2="93.6188" y1="41.2847" y2="-1.1041">
      <stop offset="0" stop-color="#B0BEC5" stop-opacity="0"/>
      <stop offset="1" stop-color="#B0BEC5"/>
    </linearGradient>
    <path d="M42.8,50.59C55.87,36.4,71.93,23.16,84.82,16.67c15.33-7.71,19.53-6.64,17.73,1.68 c-1.16,5.36-3.62,10.24-3.62,10.24s6.8-4.64,10.57-14.04c3.82-9.51-6.26-11.77-18.24-8.28c-16.35,4.76-35.84,15.05-56.62,38.48 L42.8,50.59z" fill="url(#SVGID_2_)"/>
    <path d="M112.24,114.65L97.82,66.38C94.68,56.11,84.8,48.23,74.1,47.24l-51.32-4.5 c-3.81-0.35-7.38-2.73-7.76-6.59c-0.28,0.73-0.45,1.51-0.49,2.32c-0.2,4.04,2.82,7.52,6.84,7.89l49.61,4.59 c10.7,0.99,19.73,8.34,22.88,18.61l14.76,48.24c1.2,3.93,5.27,6.22,9.25,5.22h0c0.96-0.24,1.82-0.66,2.58-1.2 C116.1,122.44,113.36,118.3,112.24,114.65z" fill="#874D36"/>
    <path d="M123.51,113.89l-14.95-67.55c-1.77-8-8.8-13.74-16.99-13.88L22.2,31.3 c-3.25-0.05-6.07,1.96-7.17,4.85c0.38,3.86,3.99,6.86,7.8,7.21l51.16,4.59c10.7,0.99,19.73,8.34,22.88,18.61l14.76,48.24 c1.12,3.65,4.48,7.63,8.83,7.02C122.9,120.08,124.2,116.99,123.51,113.89z" fill="#A65F3E"/>
    <path d="M15.03,36.15c-0.28,0.73-0.45,1.51-0.49,2.32c-0.2,4.04,2.82,7.52,6.84,7.89l15.84,1.47 c0.87-0.68,1.62-1.72,2.22-2.97l0.2-0.45l-16.61-1.63c-1.9-0.18-3.97-1.35-5.4-2.63C16.21,38.87,15.03,36.15,15.03,36.15z" fill="#E2A610"/>
    <path d="M39.45,31.59L22.2,31.3c-3.25-0.05-6.07,1.96-7.17,4.85c0.38,3.86,3.99,6.86,7.8,7.21l16.61,1.49 c0.86-1.81,1.39-4.11,1.39-6.63C40.82,35.71,40.3,33.4,39.45,31.59z" fill="#FFCA28"/>
    <path d="M112.24,114.65l-4.87-15.05l-0.33,0.23c-1.19,0.86-2.23,1.85-3.01,2.97l4.59,15.01 c1.2,3.93,5.27,6.22,9.25,5.22c0.96-0.24,1.82-0.66,2.58-1.2c0,0-2.85-0.26-5.09-2.52C113.97,117.9,112.78,116.41,112.24,114.65z" fill="#E2A610"/>
    <path d="M123.51,113.89l-3.69-16.65l-0.02-0.04c-1.95-0.47-4.31-0.51-6.78,0c-2.17,0.45-4.25,1.38-6,2.63 l4.58,14.97c1.12,3.65,4.48,7.63,8.83,7.02C122.9,120.08,124.2,116.99,123.51,113.89z" fill="#FFCA28"/>
    <path d="M24.59,33.3c-2.08,0.02-3.71,0.72-3.68,2.01c0.03,1.22,0.41,2.4,4.45,2.37l69.46-0.46 c0.71,0,0.89-0.98,0.23-1.25c-1.48-0.6-3.84-1.19-7.37-1.23C80.49,34.66,27.41,33.27,24.59,33.3z" fill="#C87D5E"/>
    <path d="M40.79,37.58c-0.05-1.41-0.26-2.74-0.6-3.94c-8.34-0.2-14.67-0.34-15.59-0.33 c-2.08,0.02-3.71,0.72-3.68,2.01c0.03,1.22,0.41,2.4,4.45,2.37L40.79,37.58z" fill="#FFE36C"/>
  </g>
</svg>

<svg viewBox="0 0 128 128" xmlns="http://www.w3.org/2000/svg">
  <defs>
    <radialGradient id="SVGID_1_" cx="-14.072134" cy="158.377763" gradientTransform="matrix(0.9546 -0.298 0.2136 0.684 0 0)" gradientUnits="userSpaceOnUse" r="86.7198">
      <stop offset="0.3898" stop-color="#B0BEC5"/>
      <stop offset="1" stop-color="#B0BEC5" stop-opacity="0"/>
    </radialGradient>
    <linearGradient id="SVGID_2_" gradientUnits="userSpaceOnUse" x1="64.6057" x2="93.6188" y1="41.2847" y2="-1.1041">
      <stop offset="0" stop-color="#B0BEC5" stop-opacity="0"/>
      <stop offset="1" stop-color="#B0BEC5"/>
    </linearGradient>
  </defs>
  <path d="M30.48,94.11 C16.87,102.01 10.85,100.75 23.27,77.02 C29.6,64.91 41.82,50.5 55.04,38.38 L46.58,32.55 C36.8,41.55 26.64,53.28 16.31,68.61 C-14.41,114.16 21.7,118.06 37.17,112.91 C72.4,101.19 98.55,62.85 98.55,62.85 L79.04,45.52 C79.04,45.52 47.22,84.39 30.48,94.11 Z" fill="url(#SVGID_1_)"/>
  <path d="M42.8,50.59 C55.87,36.4 71.93,23.16 84.82,16.67 C100.15,8.96 104.35,10.03 102.55,18.35 C101.39,23.71 98.93,28.59 98.93,28.59 C98.93,28.59 105.73,23.95 109.5,14.55 C113.32,5.04 103.24,2.78 91.26,6.27 C74.91,11.03 55.42,21.32 34.64,44.75 L42.8,50.59 Z" fill="url(#SVGID_2_)"/>
  <path d="M112.24,114.65 L97.82,66.38 C94.68,56.11 84.8,48.23 74.1,47.24 L22.78,42.74 C18.97,42.39 15.4,40.01 15.02,36.15 C14.74,36.88 14.57,37.66 14.53,38.47 C14.33,42.51 17.35,45.99 21.37,46.36 L70.98,50.95 C81.68,51.94 90.71,59.29 93.86,69.56 L108.62,117.8 C109.82,121.73 113.89,124.02 117.87,123.02 L117.87,123.02 C118.83,122.78 119.69,122.36 120.45,121.82 C116.1,122.44 113.36,118.3 112.24,114.65 Z" fill="#874D36"/>
  <path d="M123.51,113.89 L108.56,46.34 C106.79,38.34 99.76,32.6 91.57,32.46 L22.2,31.3 C18.95,31.25 16.13,33.26 15.03,36.15 C15.41,40.01 19.02,43.01 22.83,43.36 L73.99,47.95 C84.69,48.94 93.72,56.29 96.87,66.56 L111.63,114.8 C112.75,118.45 116.11,122.43 120.46,121.82 C122.9,120.08 124.2,116.99 123.51,113.89 Z" fill="#A65F3E"/>
  <path d="M15.03,36.15 C14.75,36.88 14.58,37.66 14.54,38.47 C14.34,42.51 17.36,45.99 21.38,46.36 L37.22,47.83 C38.09,47.15 38.84,46.11 39.44,44.86 L39.64,44.41 L23.03,42.78 C21.13,42.6 19.06,41.43 17.63,40.15 C16.21,38.87 15.03,36.15 15.03,36.15 Z" fill="#E2A610"/>
  <path d="M39.45,31.59 L22.2,31.3 C18.95,31.25 16.13,33.26 15.03,36.15 C15.41,40.01 19.02,43.01 22.83,43.36 L39.44,44.85 C40.3,43.04 40.83,40.74 40.83,38.22 C40.82,35.71 40.3,33.4 39.45,31.59 Z" fill="#FFCA28"/>
  <path d="M112.24,114.65 L107.37,99.6 L107.04,99.83 C105.85,100.69 104.81,101.68 104.03,102.8 L108.62,117.81 C109.82,121.74 113.89,124.03 117.87,123.03 C118.83,122.79 119.69,122.37 120.45,121.83 C120.45,121.83 117.6,121.57 115.36,119.31 C113.97,117.9 112.78,116.41 112.24,114.65 Z" fill="#E2A610"/>
  <path d="M123.51,113.89 L119.82,97.24 L119.8,97.2 C117.85,96.73 115.49,96.69 113.02,97.2 C110.85,97.65 108.77,98.58 107.02,99.83 L111.6,114.8 C112.72,118.45 116.08,122.43 120.43,121.82 C122.9,120.08 124.2,116.99 123.51,113.89 Z" fill="#FFCA28"/>
  <path d="M24.59,33.3 C22.51,33.32 20.88,34.02 20.91,35.31 C20.94,36.53 21.32,37.71 25.36,37.68 L94.82,37.22 C95.53,37.22 95.71,36.24 95.05,35.97 C93.57,35.37 91.21,34.78 87.68,34.74 C80.49,34.66 27.41,33.27 24.59,33.3 Z" fill="#C87D5E"/>
  <path d="M40.79,37.58 C40.74,36.17 40.53,34.84 40.19,33.64 C31.85,33.44 25.52,33.3 24.6,33.31 C22.52,33.33 20.89,34.03 20.92,35.32 C20.95,36.54 21.33,37.72 25.37,37.69 L40.79,37.58 Z" fill="#FFE36C"/>
</svg>
